packages/kaspersky-hexa-ui-icons/src/iconsSVGs/16/AddContact.svg

<svg width="16" height="16" viewBox="0 0 16 16" fill="none" xmlns="http://www.w3.org/2000/svg">
<path fill-rule="evenodd" clip-rule="evenodd" d="M5.02283 4.06144C5.02283 2.42594 6.34866 1.1001 7.98417 1.1001C9.61967 1.1001 10.9455 2.42594 10.9455 4.06144C10.9455 5.69694 9.61967 7.02278 7.98417 7.02278C6.34866 7.02278 5.02283 5.69694 5.02283 4.06144ZM7.98417 2.4001C7.06664 2.4001 6.32283 3.14391 6.32283 4.06144C6.32283 4.97897 7.06664 5.72278 7.98417 5.72278C8.9017 5.72278 9.64551 4.97897 9.64551 4.06144C9.64551 3.14391 8.9017 2.4001 7.98417 2.4001Z" fill="black"/>
<path d="M2.0332 11.7826C2.0332 9.76673 3.66736 8.13257 5.6832 8.13257H10.316C10.3417 8.13257 10.3673 8.13283 10.3928 8.13336C10.1708 8.44997 10.0405 8.83559 10.0405 9.25164V9.43257H5.6832C4.38533 9.43257 3.3332 10.4847 3.3332 11.7826V12.8501C3.3332 13.2643 3.66899 13.6001 4.0832 13.6001H10.0405V14.0468C10.0405 14.3528 10.111 14.6423 10.2366 14.9001H4.0832C2.95102 14.9001 2.0332 13.9823 2.0332 12.8501V11.7826Z" fill="black"/>
<path d="M11.9903 8.60162C12.3493 8.60162 12.6403 8.89264 12.6403 9.25162V10.9994H14.3879C14.7469 10.9994 15.0379 11.2904 15.0379 11.6494C15.0379 12.0084 14.7469 12.2994 14.3879 12.2994H12.6403V14.0468C12.6403 14.4058 12.3493 14.6968 11.9903 14.6968C11.6313 14.6968 11.3403 14.4058 11.3403 14.0468V12.2994H9.59275C9.23376 12.2994 8.94275 12.0084 8.94275 11.6494C8.94275 11.2904 9.23376 10.9994 9.59275 10.9994H11.3403V9.25162C11.3403 8.89264 11.6313 8.60162 11.9903 8.60162Z" fill="black"/>
</svg>

<svg xmlns="http://www.w3.org/2000/svg" width="16" height="16" fill="none" viewBox="0 0 16 16"><path fill="#000" fill-rule="evenodd" d="M5.0228 4.0614c0-1.6355 1.3259-2.9613 2.9614-2.9613s2.9613 1.3258 2.9613 2.9613-1.3258 2.9614-2.9613 2.9614-2.9614-1.3259-2.9614-2.9614m2.9614-1.6613c-.9176 0-1.6614.7438-1.6614 1.6613s.7438 1.6614 1.6614 1.6614 1.6613-.7438 1.6613-1.6614-.7438-1.6613-1.6613-1.6613m-5.951 9.3825c0-2.0159 1.6342-3.65 3.65-3.65h4.6328q.0385 0 .0768.0008a1.94 1.94 0 0 0-.3523 1.1182v.181H5.6832c-1.2979 0-2.35 1.0521-2.35 2.35v1.0675a.75.75 0 0 0 .75.75h5.9573v.4467c0 .306.0705.5955.1961.8533H4.0832c-1.1322 0-2.05-.9178-2.05-2.05zm10.6071-2.531a.65.65 0 1 0-1.3 0v1.7478H9.5927a.65.65 0 1 0 0 1.3h1.7476v1.7474a.65.65 0 1 0 1.3 0v-1.7474h1.7476a.65.65 0 1 0 0-1.3h-1.7476z"/></svg>
